packages/ui/public/icons/media-photos.svg

<svg width="23" height="19" viewBox="0 0 23 19" fill="none" xmlns="http://www.w3.org/2000/svg">
<path d="M21.1472 17.4837L21.1481 17.4836C21.4269 17.4812 21.6517 17.2544 21.6517 16.9754V1.85294C21.6517 1.57401 21.4269 1.34721 21.1481 1.34474H21.1472H1.85291C1.57233 1.34474 1.3447 1.57217 1.3447 1.85294V16.9754C1.3447 17.2562 1.57231 17.4836 1.85291 17.4836L21.1472 17.4837ZM21.1472 18.7283H1.85291C1.38798 18.7283 0.942176 18.5437 0.613417 18.2149C0.284765 17.8861 0.1 17.4403 0.1 16.9754V1.85291C0.1 1.38799 0.284753 0.942168 0.613416 0.613391C0.942176 0.284637 1.38798 0.1 1.85291 0.1H21.1472C21.612 0.1 22.0578 0.28463 22.3866 0.613402C22.7154 0.942165 22.9 1.38797 22.9 1.85291V16.9754C22.9 17.4403 22.7154 17.8862 22.3866 18.2149C22.0578 18.5437 21.612 18.7283 21.1472 18.7283Z" fill="#BF7AF0" />
<path d="M14.1716 13.8173L9.53604 7.52368V7.52355C9.41744 7.362 9.22687 7.26889 9.02646 7.27467C8.82605 7.28045 8.64126 7.38433 8.53198 7.55257L14.1716 13.8173ZM14.1716 13.8173L14.1624 13.826L14.2313 13.8984L14.3119 13.8391L14.3044 13.8289L14.1716 13.8173ZM3.8368 14.7543L3.83742 14.7549L3.83671 14.7544C3.83674 14.7544 3.83677 14.7543 3.8368 14.7543ZM3.8368 14.7543L3.83677 14.7543L3.83667 14.7544L3.8368 14.7543ZM4.36413 15.697L4.36413 15.697L4.36413 15.697Z" fill="#BF7AF0" />
<path d="M17.9805 5.46116C17.9805 6.58875 17.0663 7.50298 15.9387 7.50298C14.811 7.50298 13.8969 6.58875 13.8969 5.46116C13.8969 4.33343 14.811 3.41934 15.9387 3.41934C17.0663 3.41934 17.9805 4.33347 17.9805 5.46116Z" fill="#BF7AF0" />
</svg>

<svg width="23" height="19" fill="none" xmlns="http://www.w3.org/2000/svg"><path d="M21.147 17.484h.001a.508.508 0 0 0 .504-.509V1.853a.508.508 0 0 0-.504-.508H1.852a.508.508 0 0 0-.508.508v15.122c0 .281.227.509.508.509h19.294Zm0 1.244H1.853A1.753 1.753 0 0 1 .1 16.975V1.853A1.753 1.753 0 0 1 1.853.1h19.294A1.753 1.753 0 0 1 22.9 1.853v15.122a1.753 1.753 0 0 1-1.753 1.753Z" fill="#BF7AF0"/><path d="M14.172 13.817 9.536 7.524a.61.61 0 0 0-1.004.029l5.64 6.264Zm0 0-.01.009.07.072.08-.059-.008-.01-.132-.012Zm-10.335.937Zm0 0Zm.527.943ZM17.98 5.461a2.042 2.042 0 1 1-4.083 0 2.042 2.042 0 0 1 4.083 0Z" fill="#BF7AF0"/></svg>
